src/assets/duotone/Backward15Seconds.svg

<?xml version="1.0" encoding="UTF-8"?>
<svg width="24" height="24" viewBox="0 0 24 24" xmlns="http://www.w3.org/2000/svg">
 <path d="m14.43 16.92h-2.29c-0.41 0-0.75-0.34-0.75-0.75s0.34-0.75 0.75-0.75h2.29c0.43 0 0.7801-0.3499 0.7801-0.7799s-0.3501-0.7801-0.7801-0.7801h-2.29c-0.24 0-0.4699-0.12-0.6099-0.31s-0.1801-0.4499-0.1001-0.6799l0.76-2.29c0.1-0.31 0.3901-0.51 0.7101-0.51h3.06c0.41 0 0.75 0.34 0.75 0.75s-0.34 0.75-0.75 0.75h-2.5201l-0.26 0.7899h1.25c1.26 0 2.2801 1.0201 2.2801 2.2801s-1.0301 2.2799-2.2801 2.2799z"/>
 <path d="m9.54 16.92c-0.41 0-0.75-0.34-0.75-0.75v-3.39l-0.19001 0.22c-0.28 0.31-0.74999 0.33-1.06 0.06-0.31-0.28-0.33-0.75-0.06-1.06l1.5-1.67c0.21-0.23 0.54002-0.31 0.83002-0.2 0.29004 0.11 0.47994 0.39 0.47994 0.7v5.35c0 0.41-0.32996 0.74-0.74996 0.74z"/>
 <path d="m12 3.4799c-0.08 0-0.16 0.01001-0.24 0.01001l0.82-1.02c0.26-0.32 0.21-0.79999-0.12-1.05s-0.79-0.21-1.05 0.12l-1.98 2.47c-0.01 0.01-0.01002 0.02998-0.02002 0.03998-0.03 0.04-0.04995 0.09001-0.06995 0.14001-0.02 0.04-0.04004 0.08001-0.05005 0.13001-0.01 0.05-0.00994 0.09001-0.00994 0.14001v0.14996 0.04999c0.01 0.03 0.02997 0.06003 0.03997 0.09003 0.02 0.05 0.04 0.09001 0.06 0.14001 0.03 0.04 0.05998 0.07999 0.09998 0.10999 0.02 0.02 0.03999 0.05001 0.05999 0.08001 0.01001 0.01 0.03004 0.00996 0.04004 0.01996 0.03 0.02 0.05997 0.03005 0.08997 0.05005 0.05 0.03 0.11003 0.05 0.16003 0.06 0.03 0.01 0.05998 0.00996 0.09998 0.01996 0.03 0 0.05002 0.01001 0.07999 0.01001 0.03 0 0.05-0.01002 0.07-0.02002 0.03 0 0.06 0.01 0.09 0 0.64-0.15 1.24-0.21997 1.81-0.21997 4.49 0 8.14 3.65 8.14 8.14 0 4.49-3.65 8.14-8.14 8.14s-8.14-3.65-8.14-8.14c0-1.74 0.56997-3.42 1.65-4.86 0.25-0.33 0.18003-0.80005-0.14997-1.05s-0.80005-0.17998-1.05 0.15002c-1.28 1.7-1.95 3.69-1.95 5.76 0 5.31 4.32 9.64 9.64 9.64s9.64-4.32 9.64-9.64c0-5.32-4.31-9.6601-9.62-9.6601z" opacity=".4"/>
</svg>

<svg width="24" height="24" viewBox="0 0 24 24"  xmlns="http://www.w3.org/2000/svg">
<path d="M14.4299 16.92H12.1399C11.7299 16.92 11.3899 16.58 11.3899 16.17C11.3899 15.76 11.7299 15.42 12.1399 15.42H14.4299C14.8599 15.42 15.21 15.0701 15.21 14.6401C15.21 14.2101 14.8599 13.86 14.4299 13.86H12.1399C11.8999 13.86 11.67 13.74 11.53 13.55C11.39 13.36 11.3499 13.1001 11.4299 12.8701L12.1899 10.5801C12.2899 10.2701 12.58 10.0701 12.9 10.0701H15.96C16.37 10.0701 16.71 10.4101 16.71 10.8201C16.71 11.2301 16.37 11.5701 15.96 11.5701H13.4399L13.1799 12.36H14.4299C15.6899 12.36 16.71 13.3801 16.71 14.6401C16.71 15.9001 15.6799 16.92 14.4299 16.92Z" />
<path d="M9.54004 16.9201C9.13004 16.9201 8.79004 16.5801 8.79004 16.1701V12.7801L8.60003 13.0001C8.32003 13.3101 7.85004 13.3301 7.54004 13.0601C7.23004 12.7801 7.21004 12.3101 7.48004 12.0001L8.98004 10.3301C9.19004 10.1001 9.52006 10.0201 9.81006 10.1301C10.1001 10.2401 10.29 10.5201 10.29 10.8301V16.1801C10.29 16.5901 9.96004 16.9201 9.54004 16.9201Z" />
<path opacity="0.4" d="M11.9998 3.47994C11.9198 3.47994 11.8398 3.48995 11.7598 3.48995L12.5798 2.46993C12.8398 2.14993 12.7898 1.66994 12.4598 1.41994C12.1298 1.16994 11.6698 1.20994 11.4098 1.53994L9.42981 4.00997C9.41981 4.01997 9.41979 4.03995 9.40979 4.04995C9.37979 4.08995 9.35984 4.13996 9.33984 4.18996C9.31984 4.22996 9.2998 4.26997 9.28979 4.31997C9.27979 4.36997 9.27985 4.40998 9.27985 4.45998C9.27985 4.50998 9.27985 4.55994 9.27985 4.60994C9.27985 4.62994 9.27985 4.63993 9.27985 4.65993C9.28985 4.68993 9.30982 4.71996 9.31982 4.74996C9.33982 4.79996 9.35982 4.83997 9.37982 4.88997C9.40982 4.92997 9.4398 4.96996 9.4798 4.99996C9.4998 5.01996 9.51979 5.04997 9.53979 5.07997C9.5498 5.08997 9.56983 5.08993 9.57983 5.09993C9.60983 5.11993 9.6398 5.12998 9.6698 5.14998C9.7198 5.17998 9.77983 5.19998 9.82983 5.20998C9.85983 5.21998 9.88981 5.21994 9.92981 5.22994C9.95981 5.22994 9.97983 5.23995 10.0098 5.23995C10.0398 5.23995 10.0598 5.22993 10.0798 5.21993C10.1098 5.21993 10.1398 5.22993 10.1698 5.21993C10.8098 5.06993 11.4098 4.99996 11.9798 4.99996C16.4698 4.99996 20.1198 8.64997 20.1198 13.14C20.1198 17.63 16.4698 21.28 11.9798 21.28C7.4898 21.28 3.83984 17.63 3.83984 13.14C3.83984 11.4 4.40981 9.71999 5.48981 8.27999C5.73981 7.94999 5.66984 7.47994 5.33984 7.22994C5.00984 6.97994 4.53979 7.04996 4.28979 7.37996C3.00979 9.07996 2.33984 11.07 2.33984 13.14C2.33984 18.45 6.6598 22.78 11.9798 22.78C17.2998 22.78 21.6198 18.46 21.6198 13.14C21.6198 7.81997 17.3098 3.47994 11.9998 3.47994Z" />
</svg>
